X:33
T:Dundalk
R:reel
C:Paul S. Cranford
O:Cape Breton Island
S:http://www.cranfordpub.com
D:currently unrecorded
B:currently unpublished in book form
Z:psc, (re-formatted,updated 9/17/04)
N:Written for Gerry O'Connor, fiddler, luthier from Dundalk, Ireland
H:                                                        copyrights Cranford Publications, SOCAN
L:1/8
Q:333
M:C|
K:Caeo
c2 ed ceGc|BFdc BdFd|cGec dBcA|GFED ECCB|
c2 ed ceGc|BFdc BdFd|cGec dBca|gfed  ecc||
||B|e2 BG EGBe|dBec dBFD|CcBd ecca|gfed  eccB|
e2 BG EGBe|dBec dBdf|gfed ceGA|GFED ECCB|]
